svgs/fingerprint.svg

<svg width="24" height="24" viewBox="0 0 24 24" fill="none" xmlns="http://www.w3.org/2000/svg">
<path d="M11.9959 3C12.9397 3 13.8653 3.11531 14.7726 3.34592C15.6793 3.57713 16.553 3.90875 17.3936 4.34078C17.5411 4.41527 17.6296 4.51955 17.6591 4.65363C17.6886 4.78771 17.6812 4.91434 17.637 5.03352C17.578 5.1527 17.486 5.24209 17.3609 5.30168C17.2352 5.36127 17.0987 5.35382 16.9512 5.27933C16.1695 4.8622 15.3619 4.54935 14.5284 4.34078C13.6954 4.13222 12.8512 4.02793 11.9959 4.02793C11.1405 4.02793 10.2963 4.12834 9.46334 4.32916C8.62979 4.53058 7.83693 4.8473 7.08479 5.27933C6.95205 5.35382 6.81932 5.37229 6.68659 5.33475C6.55386 5.2978 6.45062 5.21229 6.37688 5.07821C6.31789 4.95903 6.30314 4.83598 6.33264 4.70905C6.36214 4.58272 6.44325 4.48231 6.57598 4.40782C7.41662 3.946 8.29412 3.5959 9.2085 3.35754C10.1229 3.11918 11.052 3 11.9959 3ZM11.9737 5.18994C13.537 5.18994 15.0118 5.52871 16.3981 6.20626C17.7844 6.88439 18.9422 7.86406 19.8713 9.14525C19.9893 9.30912 20.0261 9.45065 19.9819 9.56983C19.9377 9.68901 19.8639 9.7933 19.7607 9.88268C19.6574 9.95717 19.5395 9.99054 19.4067 9.98279C19.274 9.97564 19.156 9.90503 19.0528 9.77095C18.2564 8.62384 17.2314 7.74488 15.9778 7.13408C14.7242 6.52328 13.3896 6.21788 11.9737 6.21788C10.5727 6.21788 9.25274 6.52328 8.01391 7.13408C6.77508 7.74488 5.75747 8.62384 4.96108 9.77095C4.85784 9.93482 4.73632 10.0242 4.59651 10.0391C4.45611 10.054 4.33429 10.0168 4.23105 9.92737C4.11307 9.85289 4.03933 9.75218 4.00983 9.62525C3.98034 9.49892 4.01721 9.36871 4.12044 9.23464C5.02007 7.95344 6.16304 6.95888 7.54935 6.25095C8.93566 5.54361 10.4105 5.18994 11.9737 5.18994ZM11.9959 9.4581C13.3674 9.4581 14.5473 9.92737 15.5354 10.8659C16.5235 11.8045 17.0176 12.959 17.0176 14.3296C17.0176 14.4935 16.9733 14.6237 16.8848 14.7202C16.7963 14.8174 16.671 14.8659 16.5087 14.8659C16.3613 14.8659 16.2397 14.8174 16.1442 14.7202C16.048 14.6237 15.9999 14.4935 15.9999 14.3296C15.9999 13.2421 15.6056 12.3295 14.8169 11.5917C14.0275 10.8546 13.0872 10.486 11.9959 10.486C10.8898 10.486 9.94973 10.8585 9.17576 11.6034C8.40119 12.3482 8.01391 13.2644 8.01391 14.352C8.01391 15.5438 8.20947 16.5568 8.60058 17.3911C8.99111 18.2253 9.58457 19.067 10.381 19.9162C10.4842 20.0205 10.5358 20.1397 10.5358 20.2737C10.5358 20.4078 10.4916 20.527 10.4031 20.6313C10.2998 20.7356 10.1745 20.7877 10.027 20.7877C9.87953 20.7877 9.75417 20.7356 9.65094 20.6313C8.78081 19.7076 8.12098 18.7578 7.67146 17.7817C7.22135 16.8062 6.9963 15.6629 6.9963 14.352C6.9963 12.9814 7.48298 11.8229 8.45635 10.8766C9.42972 9.93095 10.6096 9.4581 11.9959 9.4581ZM11.9737 13.8156C12.1212 13.8156 12.243 13.8678 12.3392 13.9721C12.4348 14.0764 12.4825 14.1955 12.4825 14.3296C12.4825 15.4767 12.8734 16.3929 13.655 17.0782C14.4367 17.7635 15.3658 18.1061 16.4424 18.1061C16.5456 18.1061 16.6822 18.0987 16.8521 18.0838C17.0214 18.0689 17.1945 18.0466 17.3715 18.0168C17.519 18.0019 17.6443 18.0317 17.7476 18.1061C17.8508 18.1806 17.9098 18.2924 17.9246 18.4413C17.9541 18.5903 17.9284 18.7095 17.8476 18.7989C17.7662 18.8883 17.6665 18.9553 17.5485 19C17.2978 19.0745 17.0692 19.1153 16.8627 19.1225C16.6562 19.1302 16.5161 19.1341 16.4424 19.1341C15.0856 19.1341 13.9169 18.6946 12.9365 17.8156C11.9555 16.9367 11.4649 15.7747 11.4649 14.3296C11.4649 14.1955 11.513 14.0764 11.6092 13.9721C11.7047 13.8678 11.8263 13.8156 11.9737 13.8156ZM11.9959 11.6257C12.748 11.6257 13.3934 11.8864 13.932 12.4078C14.47 12.9292 14.739 13.5698 14.739 14.3296C14.739 14.8063 14.916 15.2086 15.2699 15.5363C15.6239 15.8641 16.0368 16.0279 16.5087 16.0279C16.9954 16.0279 17.4048 15.8641 17.737 15.5363C18.0685 15.2086 18.2343 14.8063 18.2343 14.3296C18.2343 12.6313 17.6222 11.2011 16.3981 10.0391C15.1741 8.8771 13.7066 8.29609 11.9959 8.29609C10.2851 8.29609 8.82151 8.88067 7.6051 10.0498C6.38809 11.2196 5.77959 12.6536 5.77959 14.352C5.77959 14.7691 5.81292 15.2384 5.87958 15.7598C5.94565 16.2812 6.09667 16.8696 6.33264 17.5251C6.37688 17.6741 6.37334 17.8082 6.32202 17.9274C6.27011 18.0466 6.17779 18.1359 6.04505 18.1955C5.89757 18.2402 5.7613 18.2328 5.63624 18.1732C5.51059 18.1136 5.41826 18.0093 5.35927 17.8603C5.1528 17.324 5.00149 16.7654 4.90533 16.1844C4.80976 15.6034 4.76198 14.9926 4.76198 14.352C4.76198 12.3557 5.46988 10.6797 6.88569 9.32402C8.3015 7.96834 9.99751 7.2905 11.9737 7.2905C13.9795 7.2905 15.6938 7.96834 17.1167 9.32402C18.5401 10.6797 19.2519 12.3482 19.2519 14.3296C19.2519 15.0894 18.9864 15.73 18.4555 16.2514C17.9246 16.7728 17.2756 17.0335 16.5087 17.0335C15.7419 17.0335 15.0856 16.7764 14.5399 16.2621C13.9942 15.7485 13.7214 15.1117 13.7214 14.352C13.7214 13.8752 13.5518 13.473 13.2126 13.1453C12.8734 12.8175 12.4678 12.6536 11.9959 12.6536C11.5092 12.6536 11.0962 12.8175 10.757 13.1453C10.4178 13.473 10.2482 13.8752 10.2482 14.352C10.2482 15.797 10.6612 17.0037 11.4871 17.9721C12.3129 18.9404 13.4264 19.6108 14.8275 19.9832C14.975 20.0279 15.0747 20.1063 15.1266 20.2183C15.1779 20.3298 15.1888 20.4525 15.1593 20.5866C15.1151 20.7058 15.0452 20.8101 14.9496 20.8994C14.8534 20.9888 14.7242 21.0186 14.562 20.9888C12.9545 20.6015 11.664 19.8194 10.6907 18.6425C9.7173 17.4655 9.23062 16.0354 9.23062 14.352C9.23062 13.5922 9.49992 12.9477 10.0385 12.4185C10.5765 11.89 11.229 11.6257 11.9959 11.6257Z" fill="#FFF1C0"/>
</svg>

<svg xmlns="http://www.w3.org/2000/svg" viewBox="0 0 24 24"><path d="M11.997 3c.944 0 1.87.115 2.777.346.906.231 1.78.563 2.62.995.148.074.237.18.266.313a.66.66 0 0 1-.022.38.573.573 0 0 1-.276.268c-.126.06-.262.052-.41-.023a10.59 10.59 0 0 0-2.423-.938 10.389 10.389 0 0 0-2.532-.313c-.856 0-1.7.1-2.533.301a8.995 8.995 0 0 0-2.378.95.5.5 0 0 1-.708-.2.536.536 0 0 1-.044-.37.463.463 0 0 1 .243-.301 11.4 11.4 0 0 1 2.633-1.05A11.006 11.006 0 0 1 11.997 3m-.022 2.19a9.95 9.95 0 0 1 4.424 1.016 9.272 9.272 0 0 1 3.473 2.94c.118.163.155.305.11.424a.76.76 0 0 1-.22.313.534.534 0 0 1-.354.1c-.133-.007-.25-.078-.354-.212a7.893 7.893 0 0 0-3.075-2.637 9.023 9.023 0 0 0-4.004-.916 8.836 8.836 0 0 0-3.96.916A7.934 7.934 0 0 0 4.96 9.771c-.103.164-.225.253-.364.268a.46.46 0 0 1-.366-.112.476.476 0 0 1-.221-.302c-.03-.126.007-.256.11-.39A9.3 9.3 0 0 1 7.55 6.25a9.6 9.6 0 0 1 4.425-1.06m.022 4.267c1.371 0 2.551.47 3.54 1.408.987.94 1.482 2.094 1.482 3.465a.556.556 0 0 1-.133.39.483.483 0 0 1-.376.146.49.49 0 0 1-.365-.146.529.529 0 0 1-.144-.39c0-1.088-.394-2-1.183-2.739-.79-.737-1.73-1.106-2.821-1.106-1.106 0-2.046.372-2.82 1.117-.775.745-1.162 1.662-1.162 2.75 0 1.192.195 2.205.587 3.04.39.833.984 1.675 1.78 2.524a.495.495 0 0 1 .155.358.537.537 0 0 1-.133.357.51.51 0 0 1-.376.157.51.51 0 0 1-.376-.157c-.87-.923-1.53-1.873-1.98-2.85-.45-.975-.675-2.118-.675-3.43 0-1.37.487-2.53 1.46-3.475.974-.946 2.154-1.419 3.54-1.419m-.022 4.359c.147 0 .269.052.365.156a.514.514 0 0 1 .143.358c0 1.147.391 2.063 1.173 2.748.782.686 1.71 1.028 2.787 1.028a6.63 6.63 0 0 0 .93-.09.53.53 0 0 1 .376.09.444.444 0 0 1 .177.335c.03.15.003.268-.077.358a.764.764 0 0 1-.3.2c-.25.076-.479.116-.685.123a13.791 13.791 0 0 1-.42.012c-1.357 0-2.526-.44-3.507-1.318-.98-.88-1.471-2.041-1.471-3.486 0-.135.048-.254.144-.358a.473.473 0 0 1 .365-.156m.022-2.19c.752 0 1.397.26 1.936.781.538.521.807 1.162.807 1.923 0 .476.177.879.53 1.206a1.77 1.77 0 0 0 1.24.492 1.68 1.68 0 0 0 1.228-.492c.332-.327.497-.73.497-1.206 0-1.7-.612-3.13-1.836-4.29-1.224-1.164-2.69-1.745-4.402-1.745-1.71 0-3.174.585-4.39 1.754-1.218 1.17-1.826 2.604-1.826 4.303 0 .417.033.886.1 1.408.066.52.217 1.11.453 1.765a.577.577 0 0 1-.011.402.518.518 0 0 1-.277.268.55.55 0 0 1-.41-.022.553.553 0 0 1-.276-.313 8.526 8.526 0 0 1-.454-1.676 11.283 11.283 0 0 1-.143-1.832c0-1.997.708-3.673 2.124-5.029C8.303 7.967 9.999 7.29 11.975 7.29c2.005 0 3.72.677 5.143 2.033 1.423 1.356 2.135 3.024 2.135 5.007 0 .76-.266 1.4-.796 1.92-.53.523-1.18.783-1.947.783a2.77 2.77 0 0 1-1.97-.77 2.523 2.523 0 0 1-.818-1.911c0-.477-.17-.88-.508-1.208a1.69 1.69 0 0 0-1.217-.49c-.487 0-.9.163-1.24.49a1.61 1.61 0 0 0-.508 1.208c0 1.445.413 2.652 1.24 3.62.825.968 1.938 1.639 3.34 2.01.147.046.247.124.299.236a.567.567 0 0 1 .032.369.808.808 0 0 1-.21.312c-.096.09-.225.12-.387.09-1.607-.387-2.898-1.17-3.871-2.347-.974-1.177-1.46-2.607-1.46-4.29 0-.76.269-1.405.808-1.935a2.69 2.69 0 0 1 1.957-.792"/></svg>
